X:1
T:Title
%%score { ( 1 3 ) | ( 2 4 ) }
L:1/8
Q:1/4=120
M:3/4
K:F
V:1 treble nm="Part_1"
V:3 treble 
V:2 treble 
V:4 treble 
V:1
 !wedge!!^!c2 .c2 c2 | d2 d2 Md2 | e2 f2 e2 | e4 d2 | c2 c2 c2 | d2 d2 d2 | %6
 !>!e2 (ed)e!>!!wedge!.^f | (3!>!g2 z2!p! z2 x2 :| (g2 f2) .e2 |] (e4 f2) | (f2 e2) d2 | (^d4 e2) | %12
 !>!!wedge!c2!f! c2 c2 | d2 d2 d2 | z e2 (gf)d=B | d4!p! c2 |: .f4 e2 | f4 e2 | f4 ed | %19
 (dc)=Bcd.e |[I:staff +1] A4 B2 |[I:staff -1] !>!!tenuto!f4 ed | (dc)=Bc.de | %23
 (3!>!!wedge!f2 z2!p! z2 x2 :|!mf! (g4 f)e |] (f4 e).d | (dc)=B(ed)c | !tenuto!c2 z2 z2 | %28
!p! (g4 f)e | (f4 e)d | (dc)=Bcde | f2 z2!p! z2 |][M:2/4][K:treble] c'c' | c''8 x | (af) .f.f | %35
 gg a(a/b/) | g2 c'c' | (c'a) aa | (af) ff | gg x27/8 | f2 ::!f! aa | bb gg | a2 ff | ef ga | %45
 (g/c'/ =b/_b/) aa | bb gg | a2 ff | ef ga | f/(g/ b/)=b/ c'c' | (c'a) aa | (af) ff | %52
 g(6:4:5g (g/f/g/)a/ x |!p! f2 x2 :| %54
V:2
 !^!E2 .E2 E2 | G2 G2 G2 | c2 d2 c2 | c4 G2 | E2 E2 E2 | G2 G2 G2 | c2 (c=Bc)A | %7
 (3!>!G2 z2!p! z2 x2 :|!mf! (e2 d2) ^c2 |] (^c4 d2) | (d2 c2) =B2 | (=B4 c2) | E2!f! E2 E2 | %13
 G2 G2 G2 | x c2 z2 G2 | G4 E2 |:!f! A4 B2 | A4 B2 | A2 A2 A2 | G2 G2 =B2 | x4[I:staff -1] e2 | %21
[I:staff +1] A4 A2 | G2 G2 =B2 | (3A2 z2!p! z2 x2 :| BcBc.Bc |] .Ac.Ac.Ac | .GB.G=BGB | Ac.Ac.Ac | %28
!p! .BcBc.Bc | .Ac.Ac.Ac | .GB.G=B.GB | A2 z2 z2 |][M:2/4][K:treble]!ff! aa | %33
[I:staff -1] (c'a) aMa[I:staff +1] x5 | (cA) AA | ce (f/c/)A/.F/ | c2 aa | (af) .cc | cA cc | %39
 (3d!wedge!d c !>!c x19/8 | A2 :: .f^f | gg ee | f2 AA | B/c/(A/c/) (G/c/)(F/c/) | D/(c/d/e/) f^f | %46
 gf ec | fc (A/c/)(A/c/) | B/c/A/c/ (G/c/)F/c/ | c z aa | (af) cc | (cA) AA | BB x2 |!p! A2 x2 :| %54
V:3
 x6 | x6 | x6 | x6 | x6 | x6 | x6 | x6 :| x6 |] x6 | x6 | x6 | x6 | x6 | x7 | x6 |: x6 | x6 | x6 | %19
 x6 | x6 | x6 | x6 | x6 :| x6 |] x6 | x6 | x6 | x6 | x6 | x6 | x6 |][M:2/4][K:treble] x2 | x c''8 | %34
 x4 | x4 | x4 | x4 | x4 | x4/3 !>!g/ (6:4:2z2 z (3f/g/ z/!p! (3:2:2a/ z/4 | x2 :: x2 | x4 | x4 | %44
 x4 | x4 | x4 | x4 | x4 | x4 | x4 | x4 | x4 | x4 :| %54
V:4
 x6 | x6 | x6 | x6 | x6 | x6 | x6 | x6 :| x6 |] x6 | x6 | x6 | x6 | x6 | x7 | x6 |: x6 | x6 | x6 | %19
 x6 | x6 | x6 | x6 | x6 :| x6 |] x6 | x6 | x6 | x6 | x6 | x6 | x6 |][M:2/4][K:treble] x2 | %33
 (af) cc x5 | x4 | x4 | x4 | x4 | x4 | x4/3 z x73/24 | x2 :: x2 | x4 | x4 | x4 | x4 | x4 | x4 | %48
 x4 | x4 | x4 | x4 | x5/3 cc x/3 | x4 :| %54

